!!!!SEGMENT: pl-kk--kk-i-382--089_anonim--offertorium-nro-30.krn
!!!cenid: 18xx:1591
!!!COM: Anonim
!!!COM-rismID: pe30004985
!!!CDT:
!!!CNT:
!!!OTL: Offertorium Nro 30
!!!PDT:
!!!AGN: Sacred
!!!SMS-siglum: PL-Kk
!!!SMS-shelfmark: Kk.I.382
!!!SMS-shelfwork: 075 W
!!!SMS-variant:
!!!SMS-altvar:
!!!NIFC-rismSourceID: 1001139027
!!!NIFC-rismChildID: 1001142465
!!!NIFC-islandoraID: pl-kk:6162
!!!URL-pdf-islandora: https://repozytorium.nifc.pl/islandora/object/pl-kk%3A6162/datastream/PDF/view
!!!URL-scan: https://polish.musicsources.pl/pl/lokalizacje/galeria/rekopisy/5994 @EN{Scan on Polish Music Sources Website} @PL{Skany w portalu Dziedzictwo Muzyki Polskiej w otwartym dostępie}
!!!ONB-nifc: UWAGA: obsada: S (T 1), A (B 1), T 2, B 2; S (T 1): skan 0053; A (B 1): skan 0198; T 2: skan 0125; B 2: skan 0273-0274
!!!AIN: 1 alto 1 bass 2 tenor
!!!key:
**kern	**text	**kern	**text	**kern	**text	**kern	**text
*part4	*part4	*part3	*part3	*part2	*part2	*part1	*part1
*staff4	*staff4	*staff3	*staff3	*staff2	*staff2	*staff1	*staff1
*Ibass	*	*Itenor	*	*Ialto	*	*Itenor	*
*I"Basso II	*	*I"Tenore II	*	*I"Alto vel Basso I	*	*I"Soprano vel Tenore I.	*
*I'B 2	*	*I'T 2	*	*I'A (B 1)	*	*I'S (T 1)	*
*clefF4	*	*clefC4	*	*clefC3	*	*clefC1	*
*k[b-e-a-]	*	*k[b-e-a-]	*	*k[b-e-a-]	*	*k[b-e-a-]	*
*c:	*	*c:	*	*c:	*	*c:	*
*M4/4	*	*M4/4	*	*M4/4	*	*M4/4	*
*met(C.)	*	*met(C.)	*	*met(C.)	*	*met(C.)	*
=1	=1	=1	=1	=1	=1	=1	=1
!LO:TX:t=P:problem=all\right&colon; global	!	!LO:TX:t=P:problem=all\right&colon; global	!	!LO:TX:t=P:problem=all\right&colon; global	!	!LO:TX:t=P:problem=all\right&colon; global	!
!LO:TX:a:t=Nro. 30.	!	!LO:TX:a:t=Nro 30.	!	!LO:TX:a:t=Nro. 30.	!	!LO:TX:a:t=Nro 30.	!
!LO:TX:a:t=P:problem=napis "Nro. 30." na pięciolinii przed kluczem	!	!LO:TX:a:t=P:problem=napis "Nro 30." na pięciolinii przed kluczem	!	!LO:TX:a:t=P:problem=napis "Nro. 30." na pięciolinii przed kluczem	!	!LO:TX:a:t=P:problem=napis "Nro 30." na pięciolinii przed kluczem	!
!LO:TX:t=P:BB-,E-,A-:problem=znaki przykluczowe	!	!LO:TX:t=P:B-,E-,A-:problem=znaki przykluczowe	!	!	!	!	!
(>4C\	Pro-	1c	Pro-	1g	Pro-	1ee-	Pro-
4E-\	.	.	.	.	.	.	.
4G\)	.	.	.	.	.	.	.
4c\	.	.	.	.	.	.	.
=2	=2	=2	=2	=2	=2	=2	=2
*2\right	*	*2\right	*	*2\right	*	*2\right	*
2Bn\	-te-	2A-\	-te-	2f\	-te-	2dd\	-te-
2c\	-ge	2G/	-ge	2e-\	-ge	2cc\	-ge
=3	=3	=3	=3	=3	=3	=3	=3
2.G\	Do-	2.G/	Do-	2.d\	Do-	2.bn\	Do-
4F#X\	-mi-	4An/	-mi-	4e-\	-mi-	4cc\	-mi-
=4	=4	=4	=4	=4	=4	=4	=4
2.G\	-ne	2.G/	-ne	2d\	-ne	2bn\	-ne
.	.	.	.	2r	.	2r	.
4r	.	4r	.	.	.	.	.
=5	=5	=5	=5	=5	=5	=5	=5
2C/	ple-	2.G/	ple-	(>4e-\	ple-	(>4cc\	ple-
.	.	.	.	4g\)	.	4ee-\)	.
(<4BBn/	-bem	.	.	(>4f\	-bem	(>4dd\	-bem
4C/)	.	4G/	-bem	4e-\)	.	4cc\)	.
=6	=6	=6	=6	=6	=6	=6	=6
2G\	tu-	2G/	tu-	2e-\	tu-	2cc\	tu-
!	!	!	!	!LO:TX:b:i:t=V&colon; S&colon;	!	!	!
!	!	!	!	!LO:TX:a:t=P:problem=napis na pięciolinii za kreską	!	!	!
2GG/	-am	2G/	-am	2d\	-am,	2bn\	-am
!LO:LB:g=original	!	!LO:LB:g=original	!	!LO:PB:g=original	!	!LO:LB:g=original	!
=7	=7	=7	=7	=7	=7	=7	=7
(>4C\	Pro-	1c	pro-	1g	pro-	1ee-	pro-
4E-\	.	.	.	.	.	.	.
4G\	.	.	.	.	.	.	.
4c\)	.	.	.	.	.	.	.
=8	=8	=8	=8	=8	=8	=8	=8
2Bn\	-te-	2A-/	-te-	2f\	-te-	2dd\	-te-
2c\	-ge	2G/	-ge	2e-\	-ge	2cc\	-ge
=9	=9	=9	=9	=9	=9	=9	=9
2.G\	Do-	2.G/	Do-	2.d\	Do-	2.bn\	Do-
4F#X\	-mi-	4An/	-mi-	4e-\	-mi-	4cc\	-mi-
=10	=10	=10	=10	=10	=10	=10	=10
2.G\	-ne	2.G/	-ne	2d\	-ne	2bn\	-ne
.	.	.	.	2r	.	2r	.
4r	.	4r	.	.	.	.	.
=11	=11	=11	=11	=11	=11	=11	=11
2C/	ple-	2.G/	ple-	(>4e-\	ple-	(>4cc\	ple-
.	.	.	.	4g\)	.	4ee-\)	.
4BBn/	-bem	.	.	(>4f\	-bem	(>4dd\	-bem
4C/	.	4G/	-bem	4e-\)	.	4cc\)	.
=12	=12	=12	=12	=12	=12	=12	=12
2G\	tu-	2G/	tu-	2e-\	tu-	2cc\	tu-
2GG/	-am	2G/	-am	2d\	-am	2bn\	-am
=13	=13	=13	=13	=13	=13	=13	=13
2r	.	2r	.	2r	.	2r	.
2E-X\	per	2G/	per	2e-\	per	2b-X\	per
=14	=14	=14	=14	=14	=14	=14	=14
2A-X\	sig-	2F/	sig-	2d\	sig-	2b-\	sig-
2G\	-num	2G/	-num	2e-\	-num	2b-\	-num
!LO:LB:g=original	!	!	!	!LO:LB:g=original	!	!	!
=15	=15	=15	=15	=15	=15	=15	=15
2F\	san-	2B-\	San-	2a-\	san-	2dd\	san-
2E-\	-cte	2B-\	-cte	2g\	-cte	2ee-\	-cte
!	!	!LO:LB:g=original	!	!	!	!LO:LB:g=original	!
=16	=16	=16	=16	=16	=16	=16	=16
2B-\	cru-	2B-\	cru-	2g\	cru-	2ee-\	cru-
2BB-/	-cis	2B-\	-cis	2f\	-cis	2dd\	-cis
=17	=17	=17	=17	=17	=17	=17	=17
2r	.	2r	.	2r	.	2r	.
2BBn/	ab	2G/	ab	2g\	ab	2dd\	ab
=18	=18	=18	=18	=18	=18	=18	=18
4C/	om-	4G/	om-	4g\	om-	4ee-\	om-
4D/	-ni-	4G/	-ni-	4f\	-ni-	4dd\	-ni-
4E-\	-bus	4G/	-bus	4e-\	-bus	4cc\	-bus
4F\	in-	4A-X/	in-	4d\	in-	4bn\	in-
=19	=19	=19	=19	=19	=19	=19	=19
4.G\	-si-	4.G/	-si-	4.e-\	-si-	4.cc\	-si-
8GG/	-di-	8G/	-di-	8e-\	-di-	8cc\	-di-
2GG/	-is	2G/	-is	2d\	-is	2bn\	-is
=20	=20	=20	=20	=20	=20	=20	=20
(>4A-\	i-	(<4F/	i-	(>4f\	i-	(>4dd\	i-
4G\)	.	4G/)	.	4e-\)	.	4cc\)	.
4F\	-ni-	4F/	-ni-	4a-\	-ni-	4bn\	-ni-
4E-\	-mi-	4G/	-mi-	4g\	-mi-	4cc\	-mi-
!LO:LB:g=original	!	!	!	!LO:LB:g=original	!	!	!
=21	=21	=21	=21	=21	=21	=21	=21
2D\	-co-	2Bn\	-co-	2f\	-co-	2dd\	-co-
(>8C\L	-rum	2G/	-rum	2e-\	-rum	2cc\	-rum
8D\	.	.	.	.	.	.	.
8E-\	.	.	.	.	.	.	.
8F\J)	.	.	.	.	.	.	.
!	!	!LO:LB:g=original	!	!	!	!LO:LB:g=original	!
=22	=22	=22	=22	=22	=22	=22	=22
2.G\	om-	2.G/	om-	2.e-\	om-	2cc\	om-
.	.	.	.	.	.	2bn\	-ni-
4GG/	-ni-	4G/	-ni-	4d\	-ni-	.	.
=23	=23	=23	=23	=23	=23	=23	=23
2C/	-um	2G/	-um	2e-\	-um	2cc\	-um
2G\	ut	2Bn\	ut	2g\	ut	2dd\	ut
=24	=24	=24	=24	=24	=24	=24	=24
(>4c\	ti-	2.c\	ti-	2.g\	ti-	2.ee-X\	ti-
4G\)	.	.	.	.	.	.	.
(>4E-\	-bi	.	.	.	.	.	.
4C\)	.	4c\	-bi	4g\	-bi	4ee-\	-bi
=25	=25	=25	=25	=25	=25	=25	=25
2G\	gra-	2Bn\	gra-	2d\	gra-	2g\	gra-
4F#X\	-tam	4c\	-tam	4e-\	-tam	4an\	-tam
!LO:TX:b:i:t=V&colon; S&colon;	!	!	!	!	!	!	!
!LO:TX:a:t=P:problem=napis na pięciolinii za kreską	!	!	!	!	!	!	!
4F#\	ex-	4c\	ex-	4e-\	ex-	4a\	ex-
!LO:PB:g=original	!	!	!	!	!	!	!
=26	=26	=26	=26	=26	=26	=26	=26
4G\	-hi-	4Bn\	-hi-	4d\	-hi-	4g\	-hi-
4F#X\	-be-	4c\	-be-	4e-\	-be-	4an\	-be-
4G\	-a-	4B\	-a-	4d\	-a-	4g\	-a-
4F#\	-mus	4c\	-mus	4e-\	-mus	4a\	-mus
!	!	!	!	!LO:LB:g=original	!	!	!
=27	=27	=27	=27	=27	=27	=27	=27
(>4c\	ser-	2.c\	ser-	2.e-\	ser-	(<4g/	ser-
4A-X\)	.	.	.	.	.	4f#X/)	.
(>4G\	-vi-	.	.	.	.	(>4g\	-vi-
4F#X\)	.	4c\	-vi-	4e-\	-vi-	4a-\)	.
!	!	!LO:LB:g=original	!	!	!	!LO:LB:g=original	!
=28	=28	=28	=28	=28	=28	=28	=28
4G\	-tu-	4Bn\	-tu-	4d\	-tu-	4g\	-tu-
4G\	-tem	4B\	-tem	4d\	-tem	4g\	-tem
2r	.	2r	.	2r	.	2r	.
=29	=29	=29	=29	=29	=29	=29	=29
2G\	et	2Bn\	et	2g\	et	2dd\	et
4A-X\	ac-	4c\	ac-	4f\	ac-	4cc\	ac-
4Bn\	-cep-	4d\	-cep-	4f\	-ce-	4bn\	-ce-
=30	=30	=30	=30	=30	=30	=30	=30
4c\	-ta-	4.G/	-ta-	4.e-\	-pta-	4.cc\	-pta-
(>8G\L	-bi-	.	.	.	.	.	.
8E-X\J)	.	8G/	-bi-	8e-\	-bi-	8cc\	-bi-
2C/	-le	2G/	-le	2e-\	-le	2cc\	-le
!LO:LB:g=original	!	!	!	!	!	!	!
=31	=31	=31	=31	=31	=31	=31	=31
2BBn/	fi-	2F/	fi-	2a-X\	fi-	2dd\	fi-
2C/	-at	2G/	-at	2g\	-at	2ee-\	-at
=32	=32	=32	=32	=32	=32	=32	=32
2D\	sa-	2A-X/	sa-	2f\	sa-	2bn\	sa-
2C/	-cri-	2G/	-cri-	2e-\	-cri-	2cc\	-cri-
!	!	!	!	!LO:LB:g=original	!	!	!
=33	=33	=33	=33	=33	=33	=33	=33
4.F\	-fi-	4.A-/	-fi-	4.d\	-fi-	4.bn\	-fi-
8F\	-ci-	8A-/	-ci-	8d\	-ci-	8b\	-ci-
!	!	!LO:TX:b:i:t=V&colon; S&colon;	!	!	!	!	!
!	!	!LO:TX:a:t=P:problem=napis na pięciolinii za kreską	!	!	!	!	!
2E-\	-um	2G/	-um	2e-\	-um	2cc\	-um
!	!	!LO:PB:g=original	!	!	!	!LO:LB:g=original	!
=34	=34	=34	=34	=34	=34	=34	=34
(>2D\	no-	(>2A-\	no-	(>2f\	no-	(>2bn\	no-
2C\	.	2G/	.	2e-\	.	2cc\	.
=35	=35	=35	=35	=35	=35	=35	=35
2G\	.	1G)	.	2e-\	.	2cc\	.
2GG/)	.	.	.	2d\)	.	2bn\)	.
=36	=36	=36	=36	=36	=36	=36	=36
2.C/	-strum	2.G/	-strum	2e-\	-strum	2cc\	-strum
.	.	.	.	2r	.	2r	.
4r	.	4r	.	.	.	.	.
=37	=37	=37	=37	=37	=37	=37	=37
2G\	et	2Bn\	et	2g\	et	2dd\	et
4A-X\	ac-	4c\	ac-	4f\	ac-	4cc\	ac-
4Bn\	-cep-	4d\	-cep-	4f\	-ce-	4bn\	-ce-
=38	=38	=38	=38	=38	=38	=38	=38
4c\	-ta-	4.G/	-ta-	4.e-\	-pta-	4.cc\	-pta-
(>8G\L	-bi-	.	.	.	.	.	.
8E-X\J)	.	8G/	-bi-	8e-\	-bi-	8cc\	-bi-
2C/	-le	2G/	-le	2e-\	-le	2cc\	-le
!LO:LB:g=original	!	!	!	!	!	!	!
=39	=39	=39	=39	=39	=39	=39	=39
2BBn/	fi-	2F/	fi-	2a-X\	fi-	2dd\	fi-
2C/	-at	2G/	-at	2g\	-at	2ee-\	-at
!	!	!	!	!LO:LB:g=original	!	!	!
=40	=40	=40	=40	=40	=40	=40	=40
2D\	sa-	2A-X\	sa-	2f\	sa-	2bn\	sa-
2C/	-cri-	2G/	-cri-	2e-\	-cri-	2cc\	-cri-
!	!	!LO:LB:g=original	!	!	!	!LO:LB:g=original	!
=41	=41	=41	=41	=41	=41	=41	=41
4.F\	-fi-	4.A-/	-fi-	4.d\	-fi-	4.bn\	-fi-
8F\	-ci-	8A-/	-ci-	8d\	-ci-	8b\	-ci-
2E-\	-um	2G/	-um	2e-\	-um	2cc\	-um
=42	=42	=42	=42	=42	=42	=42	=42
(>2D/	no-	2A-X/	no-	(>2f\	no-	(>2bn\	no-
2C/	.	2G/	.	[>2e-\	.	2cc\	.
=43	=43	=43	=43	=43	=43	=43	=43
2G\	.	1G	.	2e-\]	.	2cc\	.
2GG/)	.	.	.	2d\)	.	2bn\)	.
=44	=44	=44	=44	=44	=44	=44	=44
1C	-strum.	1G	-strum.	1e-	-strum.	1cc	-strum.
==	==	==	==	==	==	==	==
*-	*-	*-	*-	*-	*-	*-	*-
!!!system-decoration: [(s1,s2,s3,s4)]
!!!RDF**kern: > = above
!!!RDF**kern: < = below
!!!EED: Mateusz Mrugas
!!!EEV: 2021-02-12
!!!ENC: Mateusz Solarz
!!!END: 2021-02-01
!!!YEC: Copyright 2022 Narodowy Instytut Fryderyka Chopina (https://polishscores.org)
!!!YEM: License CC-BY-4.0 (https://creativecommons.org/licenses/by/4.0)
